app/assets/images/heroicons/micro/cpu-chip.svg

<svg width="16" height="16" viewBox="0 0 16 16" fill="none" xmlns="http://www.w3.org/2000/svg">
<path d="M6 6V10H10V6H6Z" fill="black"/>
<path fill-rule="evenodd" clip-rule="evenodd" d="M5.75 1C5.33579 1 5 1.33579 5 1.75V3C3.89543 3 3 3.89543 3 5H1.75C1.33579 5 1 5.33579 1 5.75C1 6.16421 1.33579 6.5 1.75 6.5H3V7.25H1.75C1.33579 7.25 1 7.58579 1 8C1 8.41421 1.33579 8.75 1.75 8.75H3V9.5H1.75C1.33579 9.5 1 9.83579 1 10.25C1 10.6642 1.33579 11 1.75 11H3C3 12.1046 3.89543 13 5 13V14.25C5 14.6642 5.33579 15 5.75 15C6.16421 15 6.5 14.6642 6.5 14.25V13H7.25V14.25C7.25 14.6642 7.58579 15 8 15C8.41421 15 8.75 14.6642 8.75 14.25V13H9.5V14.25C9.5 14.6642 9.83579 15 10.25 15C10.6642 15 11 14.6642 11 14.25V13C12.1046 13 13 12.1046 13 11H14.25C14.6642 11 15 10.6642 15 10.25C15 9.83579 14.6642 9.5 14.25 9.5H13V8.75H14.25C14.6642 8.75 15 8.41421 15 8C15 7.58579 14.6642 7.25 14.25 7.25H13V6.5H14.25C14.6642 6.5 15 6.16421 15 5.75C15 5.33579 14.6642 5 14.25 5H13C13 3.89543 12.1046 3 11 3V1.75C11 1.33579 10.6642 1 10.25 1C9.83579 1 9.5 1.33579 9.5 1.75V3H8.75V1.75C8.75 1.33579 8.41421 1 8 1C7.58579 1 7.25 1.33579 7.25 1.75V3H6.5V1.75C6.5 1.33579 6.16421 1 5.75 1ZM11 4.5C11.2761 4.5 11.5 4.72386 11.5 5V11C11.5 11.2761 11.2761 11.5 11 11.5H5C4.72386 11.5 4.5 11.2761 4.5 11V5C4.5 4.72386 4.72386 4.5 5 4.5H11Z" fill="black"/>
</svg>

<svg xmlns="http://www.w3.org/2000/svg" viewBox="0 0 16 16" fill="currentColor" aria-hidden="true" data-slot="icon">
  <path d="M6 6v4h4V6H6Z"/>
  <path fill-rule="evenodd" d="M5.75 1a.75.75 0 0 0-.75.75V3a2 2 0 0 0-2 2H1.75a.75.75 0 0 0 0 1.5H3v.75H1.75a.75.75 0 0 0 0 1.5H3v.75H1.75a.75.75 0 0 0 0 1.5H3a2 2 0 0 0 2 2v1.25a.75.75 0 0 0 1.5 0V13h.75v1.25a.75.75 0 0 0 1.5 0V13h.75v1.25a.75.75 0 0 0 1.5 0V13a2 2 0 0 0 2-2h1.25a.75.75 0 0 0 0-1.5H13v-.75h1.25a.75.75 0 0 0 0-1.5H13V6.5h1.25a.75.75 0 0 0 0-1.5H13a2 2 0 0 0-2-2V1.75a.75.75 0 0 0-1.5 0V3h-.75V1.75a.75.75 0 0 0-1.5 0V3H6.5V1.75A.75.75 0 0 0 5.75 1ZM11 4.5a.5.5 0 0 1 .5.5v6a.5.5 0 0 1-.5.5H5a.5.5 0 0 1-.5-.5V5a.5.5 0 0 1 .5-.5h6Z" clip-rule="evenodd"/>
</svg>
